X:1
T: Corby Loch
C:
R:Jig
Q:180
K:A
M:6/8
L:1/16
|:ed|c2B2c2 A2c2e2|a2g2a2 e2c2A2|d2f2d2 c2e2c2|d2B2A2 G2F2E2|
c2B2c2 A2c2e2|a2g2a2 e2c2A2|d2f2d2 c2e2c2|1d2B2G2 A2e2d2:|2d2B2G2 A4c2|
|:B2c2B2 G2F2E2|e2c2A2 A2c2e2|f2d2B2 B2b2a2|g4e2 e2f2g2|
a2g2a2 e2c2A2|f2F2f2 d2A2F2|e2E2e2 d2c2B2|1c2A2A2 A4c2:|2c2A2A2 A4||
